X:1
T:Frost is All Over, The
R:jig
M:6/8
L:1/8
K:D
def edB|AFD FED|DFA AFA|Bee edB|
def edB|AFD FED|DFA AFA|1 Bdd d2A:|2 Bdd d2e|]
fdd ede|~f3 d2e|fef def|gfg efg|
fed B2A|AdF G2A|ABA F2E|1 EDD D2e:|2 EDD D3|]
</abc>
